assets/images/ico_loading.svg

<svg width="29" height="29" viewBox="0 0 29 29" fill="none" xmlns="http://www.w3.org/2000/svg">
<path d="M25.5265 13.9408C25.5143 13.6628 25.3918 13.4017 25.1859 13.2148C24.98 13.028 24.7076 12.9308 24.4286 12.9446C24.1496 12.9583 23.8868 13.082 23.6982 13.2883C23.5095 13.4946 23.4103 13.7667 23.4225 14.0446C23.5056 15.9208 22.9535 17.774 21.855 19.3069C20.7565 20.8398 19.1753 21.9634 17.365 22.4974C15.5548 23.0314 13.6207 22.9448 11.873 22.2515C10.1253 21.5582 8.66549 20.2985 7.72786 18.6745C6.79022 17.0504 6.42915 15.1563 6.7026 13.2962C6.97604 11.436 7.86814 9.71766 9.23571 8.41697C10.6033 7.11628 12.367 6.30867 14.2438 6.12378C16.1205 5.93888 18.0015 6.38743 19.5847 7.39741C19.7009 7.47146 19.8307 7.52188 19.9668 7.54581C20.1028 7.56974 20.2424 7.5667 20.3776 7.53687C20.5128 7.50704 20.6409 7.451 20.7546 7.37195C20.8684 7.2929 20.9655 7.19239 21.0405 7.07616C21.1155 6.95993 21.1668 6.83025 21.1916 6.69453C21.2164 6.55881 21.2142 6.4197 21.1851 6.28516C21.1559 6.15061 21.1005 6.02325 21.0218 5.91037C20.9432 5.79748 20.8429 5.70126 20.7267 5.62722C18.7475 4.36543 16.3964 3.80539 14.0507 4.03697C11.7051 4.26856 9.50086 5.27834 7.79182 6.90426C6.08277 8.53019 4.96799 10.678 4.62639 13.003C4.28478 15.3279 4.73616 17.6953 5.90808 19.7251C7.07999 21.7549 8.90449 23.3295 11.0888 24.1962C13.2731 25.0628 15.6905 25.1713 17.9531 24.5042C20.2157 23.8371 22.1923 22.433 23.5657 20.5174C24.9391 18.6018 25.6297 16.2857 25.5265 13.9408Z" fill="white"/>
</svg>

<svg width="29" height="29" fill="none" xmlns="http://www.w3.org/2000/svg"><path d="M25.526 13.94a1.042 1.042 0 00-1.097-.995 1.06 1.06 0 00-1.006 1.1 8.398 8.398 0 01-1.568 5.262 8.475 8.475 0 01-4.49 3.19 8.428 8.428 0 01-5.492-.245 8.33 8.33 0 01-4.145-3.578 8.33 8.33 0 01-1.025-5.378 8.429 8.429 0 012.533-4.879 8.476 8.476 0 015.008-2.293 8.398 8.398 0 015.34 1.273 1.049 1.049 0 00.794.14 1.06 1.06 0 00.814-.842 1.047 1.047 0 00-.465-1.068 10.498 10.498 0 00-6.676-1.59 10.594 10.594 0 00-6.26 2.867 10.536 10.536 0 00-3.165 6.099 10.412 10.412 0 001.282 6.722 10.413 10.413 0 005.18 4.471c2.185.867 4.603.975 6.865.308a10.595 10.595 0 005.613-3.987 10.498 10.498 0 001.96-6.576z" fill="#fff"/></svg>
